X: 896
T: Alfred På Hultet
R: polka
M: 2/4
K: Dmajor
ff f/g/f/e/|dd F>G|AA BA/G/|FE E2|
gg g/f/e/d/|cc c>B|AA BA/G/|FA de|
ff f/g/f/e/|dd F>G|AA BA/G/|FE E2|
gg g/f/e/d/|ca a/b/a/g/|fg Bc|d2 d2||
ff f/d/A/d/|ff f2|gg g/d/B/d/|gg g2|
aa a/e/c/e/|aa a/b/a/g/|fg ea|fd de|
ff f/d/A/d/|ff f2|gg g/d/B/d/|gg g2|
aa a/e/c/e/|aa a/b/a/g/|fg Bc|d2 d2||

